Origami/22x22/apps/unknown-horizons.svg

<svg width="22" height="22" version="1.1" viewBox="0 0 22 22" xmlns="http://www.w3.org/2000/svg">
 <path d="m13 4.5v11s-4-2.5135-4-5.5 4-5.5 4-5.5z" style="opacity:.2"/>
 <path d="m13 4.5v-3l4 1.5z" style="opacity:.2"/>
 <path d="m7 8.5v7s-3-1.5995-3-3.5 3-3.5 3-3.5z" style="opacity:.2"/>
 <path d="m14 15.5h-13s3 5 12 5c6 0 8-3.5 8-5 0-1.297655 0-2-1-2h-5c-1 0-1 0.800928-1 2z" style="opacity:.2"/>
 <path d="m13 4v11s-4-2.5135-4-5.5 4-5.5 4-5.5z" style="fill:#cccccc"/>
 <path d="m13 4v-3l4 1.5z" style="fill:#c83737"/>
 <path d="m7 8v7s-3-1.5995-3-3.5 3-3.5 3-3.5z" style="fill:#cccccc"/>
 <path d="m14 15h-13s3 5 12 5c6 0 8-3.5 8-5 0-1.297655 0-2-1-2h-5c-1 0-1 0.800928-1 2z" style="fill:#784421"/>
 <path d="m15 14.5s0-0.5 0.5-0.5 0.5 0.5 0.5 0.5v1.5h-1z" style="opacity:.4"/>
 <path d="m17 14.5s0-0.5 0.5-0.5 0.5 0.5 0.5 0.5v1.5h-1z" style="opacity:.4"/>
 <path d="m19 14.5s0-0.5 0.5-0.5 0.5 0.5 0.5 0.5v1.5h-1z" style="opacity:.4"/>
 <path d="M 13,4 C 13,4 9,6.5135 9,9.5 9,9.58411 9.01337,9.666688 9.01953,9.75 9.23232,6.8750717 13,4.5 13,4.5 Z" style="fill:#ffffff;opacity:.1"/>
 <path d="m13 1v0.5l3.333984 1.25 0.666016-0.25z" style="fill:#ffffff;opacity:.1"/>
 <path d="M 7,8 C 7,8 4,9.5995 4,11.5 4,11.58446 4.012114,11.666842 4.023437,11.75 4.2669129,9.961977 7,8.5 7,8.5 Z" style="fill:#ffffff;opacity:.1"/>
 <path d="m15 13c-1 0-1 0.800928-1 2h-13s0.1472581 0.213374 0.3789062 0.5h12.621094c0-1.199072 0-2 1-2h5c0.869888 0 0.977461 0.560254 0.992188 1.552734 4.2e-4 -0.015745 0.007812-0.037401 0.007812-0.052734 0-1.297655 0-2-1-2z" style="fill:#ffffff;opacity:.1"/>
</svg>

<svg xmlns="http://www.w3.org/2000/svg" width="22" height="22" version="1.1" viewBox="0 0 22 22">
 <path style="opacity:0.2" d="m 13,4.5 v 11 C 13,15.5 9,12.9865 9,10 9,7.0135 13,4.5 13,4.5 Z"/>
 <path style="opacity:0.2" d="m 13,4.5 v -3 L 17,3 Z"/>
 <path style="opacity:0.2" d="m 7,8.5 v 7 C 7,15.5 4,13.9005 4,12 4,10.0995 7,8.5 7,8.5 Z"/>
 <path style="opacity:0.2" d="M 14,15.5 H 1 c 0,0 3,5 12,5 6,0 8,-3.5 8,-5 0,-1.297655 0,-2 -1,-2 h -5 c -1,0 -1,0.800928 -1,2 z"/>
 <path style="fill:#cccccc" d="M 13,4 V 15 C 13,15 9,12.4865 9,9.5 9,6.5135 13,4 13,4 Z"/>
 <path style="fill:#c83737" d="M 13,4 V 1 l 4,1.5 z"/>
 <path style="fill:#cccccc" d="m 7,8 v 7 C 7,15 4,13.4005 4,11.5 4,9.5995 7,8 7,8 Z"/>
 <path style="fill:#784421" d="M 14,15 H 1 c 0,0 3,5 12,5 6,0 8,-3.5 8,-5 0,-1.297655 0,-2 -1,-2 h -5 c -1,0 -1,0.800928 -1,2 z"/>
 <path style="opacity:0.4" d="m 15,14.5 c 0,0 0,-0.5 0.5,-0.5 0.5,0 0.5,0.5 0.5,0.5 V 16 h -1 z"/>
 <path style="opacity:0.4" d="m 17,14.5 c 0,0 0,-0.5 0.5,-0.5 0.5,0 0.5,0.5 0.5,0.5 V 16 h -1 z"/>
 <path style="opacity:0.4" d="m 19,14.5 c 0,0 0,-0.5 0.5,-0.5 0.5,0 0.5,0.5 0.5,0.5 V 16 h -1 z"/>
 <path style="opacity:0.1;fill:#ffffff" d="M 13,4 C 13,4 9,6.5135 9,9.5 9,9.58411 9.01337,9.666688 9.01953,9.75 9.23232,6.8750717 13,4.5 13,4.5 Z"/>
 <path style="opacity:0.1;fill:#ffffff" d="M 13,1 V 1.5 L 16.333984,2.75 17,2.5 Z"/>
 <path style="opacity:0.1;fill:#ffffff" d="M 7,8 C 7,8 4,9.5995 4,11.5 4,11.58446 4.012114,11.666842 4.023437,11.75 4.2669129,9.961977 7,8.5 7,8.5 Z"/>
 <path style="opacity:0.1;fill:#ffffff" d="m 15,13 c -1,0 -1,0.800928 -1,2 H 1 c 0,0 0.1472581,0.213374 0.3789062,0.5 H 14 c 0,-1.199072 0,-2 1,-2 h 5 c 0.869888,0 0.977461,0.560254 0.992188,1.552734 C 20.992608,15.036989 21,15.015333 21,15 c 0,-1.297655 0,-2 -1,-2 z"/>
</svg>
